X:1
T:Title
%%score 1 ( 2 3 ) ( 4 5 ) 6
L:1/8
Q:1/4=120
M:4/4
K:G
V:1 treble nm="Voice"
V:2 treble nm="Voice"
V:3 treble 
V:4 treble-8 nm="Voice"
V:5 treble-8 
V:6 bass nm="Voice"
V:1
 x8 | x8 | x8 | [FA]8 | z2 x6 | x8 ||[K:F] g8 ||!f! A2 A2 A^G!mf! A2 | AA B2 AA B2 | A2 A2 A^G A2 | %10
 AA B2 AA B2 | !>!f!>!f !>!d2 z4 | z8 | !>!f!>!f !>!d2 z4 | z8 ||!f! A2 A2 A^G A2 | AA B2 AA B2 | %17
 A2 A2 A^G A2 | AA B2 AA B2 | !>!f!>!f !>!d2 z4 | z8 | !>!f!>!f !>!d2 z4 | z8 || %23
 z2!f!!ped! !>!F2 !>!E!>!E !>!^F2 | z8 | z2 !>!=F2 !>!F!>!F !>!E2 | z8 | %27
 z2!ped! !>!F2 !>!E!>!E !>!^F2 | z8 | z2 !>!=F2 !>!F!>!F !>!E2 | z8 ||!f! A2 A2 A^G A2 | %32
 AA B2 AA B2 | A2 A2 A^G A2 | AA B2 AA B2 | !>!f!>!f !>!d2 z4 | z8 | !>!f!>!f !>!d2 z4 | z8 || %39
[K:G] x8 | x8 | x8 | [FAc]8 || x8 ||[K:F] z8 | z8 | z8 | z8 | z8 | z8 | z8 | z8 | %52
!mf! d2!<(! ^c2 A2!p! c2 | f2 e2 d2 ^c2 | d2 ^c2 A2!<)! c2 | f2 e2 d2 ^c2 | d2 ^c2 A2 c2 | %57
 f2 e2 d2 ^c2 | d2 ^c2 A2 c2 | f2 e2 d2 ^c2 ||!ff! !>!f!>!f !>!d2 z4 | z8 | !>!f!>!f !>!d2 z4 | %63
 z8 | !>!f!>!f !>!d2 z4 | z8 | !>!f!>!f !>!d2 z4 | z8 || x8 | !>!f!>!f !>!d2 z4 |] %70
V:2
 x8 | x8 | x8 | F8 | x8 | x8 ||[K:F] g8 ||!f!!ped! F2 F2 FE F2 | FF F2 FF F2 | F2 F2 FE F2 | %10
 FF F2 FF F2 |!ff! cB !>!A2 z4 | z8 | cB !>!A2 z4 | z8 ||!f! F2 F2 FE F2 | FF F2 FF F2 | %17
 F2 F2 FE F2 | FF F2 FF F2 | cB !>!A2 z4 | z8 | (cB) !>!A2 z4 | z8 || %23
 z2!f!!ped! !>!F2 !>!E!p!!>!E !>!^F2 | z8 | z2 !>!=F2 !>!F!p!!>!F!p! !>!E2 | z8 | %27
 z2 !>!F2 !>!E!p!!>!E!p! !>!^F2 | z8 | z2 !>!=F2 !>!F!>!F!p! !>!E2 | z8 ||!f! F2 F2 FE F2 | %32
 FF F2 FF F2 | F2 F2 FE F2 | FF F2 FF F2 |!ff! cB !>!A2 z4 | z8 | cB !>!A2 z4 | z8 ||[K:G] x8 | %40
 x8 | x8 | c8 || z2 x6 ||[K:F] z8 | z8 | z8 | z8 | z8 | z8 | z8 | z8 |!mf! d2!<(! ^c2 A2!p! c2 | %53
 f2 e2 d2 ^c2 | d2 ^c2 A2!<)!!p! c2 | f2 e2 d2 ^c2 | A2 G2 F2!p! G2 | A2 G2 F2!p! G2 | %58
 A2 G2 F2!p! G2 | A2 G2 F2!p! G2 ||!ff! cB !>!A2 z4 | z8 | cB !>!A2 z4 | z8 |!ff! cB !>!A2 z4 | %65
 z8 | cB !>!A2 z4 | z8 || x8 | cB !>!A2 z4 |] %70
V:3
 x8 | x8 | x8 | x8 | x8 | x8 ||[K:F] x8 || x8 | x8 | x8 | x8 | x8 | x8 | x8 | x8 || x8 | x8 | x8 | %18
 x8 | x8 | x8 | x8 | x8 || x8 | x8 | x8 | x8 | x8 | x8 | x8 | x8 || x8 | x8 | x8 | x8 | x8 | x8 | %37
 x8 | x8 ||[K:G] x8 | x8 | x8 | F8 || x8 ||[K:F] x8 | x8 | x8 | x8 | x8 | x8 | x8 | x8 | x8 | x8 | %54
 x8 | x8 | x8 | x8 | x8 | x8 || x8 | x8 | x8 | x8 | x8 | x8 | x8 | x8 || x8 | x8 |] %70
V:4
 x8 | x8 | x8 | F8 | x8 | x8 ||[K:F] g8 ||!f! d2 d2 dd d2 | dd ^c2 dd c2 | d2!p! d2 dd d2 | %10
 dd ^c2 dd c2 | f!>!f !>!f2 z4 | z8 | !>!f!>!f !>!f2 z4 | z8 ||!f! d2 d2 dd d2 | dd ^c2 dd c2 | %17
 d2 d2 dd d2 | dd ^c2 dd c2 | f!>!f !>!f2 z4 | z8 | !>!f!>!f !>!f2 z4 | z8 || %23
 z2!f! !>!F2 !>!E!>!E !>!^F2 | z8 | z2 !>!=F2 !>!F!>!F !>!E2 | z8 | z2!ped! !>!f2 !>!e!>!e !>!^f2 | %28
 z8 | z2 !>!=f2 !>!f!>!f !>!e2 | z8 ||!f! d2 d2 dd d2 | dd ^c2 dd c2 | d2!ped! d2 dd d2 | %34
 dd ^c2 dd c2 | f!>!f !>!f2 z4 | z8 | !>!f!>!f !>!f2 z4 | z8 ||[K:G] x8 | x8 | x8 | c8 || x8 || %44
[K:F]!f! D_E^CE DE C2 | DFDD D_E ^C2 | D_E^CE DE C2 | DFDD D_E ^C2 | D_E^CE DE C2 | DFDD D_E ^C2 | %50
 D_E^CE DE C2 | DFDD D_E ^C2 | D_E^CE DE C2 | DFDD .D_E ^C2 | D_E^CE DE C2 | DFDD D_E ^C2 | %56
 D_E^CE DE C2 | DFDD .D_E ^C2 | D_E^CE DE C2 | DFDD D_E ^C2 || f!>!f !>!f2 z4 | z8 | %62
 !>!f!>!f !>!f2 z4 | z8 | f!>!f !>!f2 z4 | z8 | !>!f!>!f !>!f2 z4 | z8 || x8 | f!>!f !>!f2 z4 |] %70
V:5
 x8 | x8 | x8 | x8 | x8 | x8 ||[K:F] x8 || x8 | x8 | x8 | x8 | x8 | x8 | x8 | x8 || x8 | x8 | x8 | %18
 x8 | x8 | x8 | x8 | x8 || x8 | x8 | x8 | x8 | x8 | x8 | x8 | x8 || x8 | x8 | x8 | x8 | x8 | x8 | %37
 x8 | x8 ||[K:G] x8 | x8 | x8 | F8 || x8 ||[K:F] x8 | x8 | x8 | x8 | x8 | x8 | x8 | x8 | x8 | x8 | %54
 x8 | x8 | x8 | x8 | x8 | x8 || x8 | x8 | x8 | x8 | x8 | x8 | x8 | x8 || x8 | x8 |] %70
V:6
 x8 | x8 | x8 | A,,8 | x8 | x8 ||[K:F] B,8 ||!f! .D,2 D,2 D,D, D,2 | D,D, ^C,2 D,D, C,2 | %9
 D,2 D,2 D,D, D,2 | D,D, ^C,2 D,D, C,2 |!ff! F,!>!F, D,2 z4 | z8 | !>!F,!>!F, D,2 z4 | z8 || %15
!f! .D,2 D,2 D,D, D,2 | D,D, ^C,2 D,D, C,2 | D,2!p! D,2 D,D, D,2 | D,.D, ^C,2 D,D, C,2 | %19
!ff! F,!>!F, D,2 z4 | z8 | !>!F,!>!F, D,2 z4 | z8 || z2!f! !>!F,2 E,E, !>!^F,2 | z8 | %25
 z2 !>!=F,2 !>!F,!>!F, E,2 | z8 | z2!ped! !>!F,2 E,E, !>!^F,2 | z8 | %29
 z2 !>!=F,2 !>!F,!>!F,!ped! E,2 | z8 ||!f! D,2 D,2 D,D, D,2 | D,.D, ^C,2 D,D, C,2 | %33
!ped! D,2 D,2 D,D, D,2 | D,.D, ^C,2 D,D, C,2 |!ff! F,!>!F, D,2 z4 | z8 | !>!F,!>!F, D,2 z4 | z8 || %39
[K:G] x8 | x8 | x8 | [A,,C,E,]8 || x8 ||[K:F]!f! D,_E,^C,E, D,E, C,2 | D,F,D,D, .D,_E, ^C,2 | %46
 D,_E,^C,E, D,E, C,2 | D,F,D,.D, D,_E, ^C,2 | D,_E,^C,E, D,E, C,2 | D,F,D,D, D,_E, ^C,2 | %50
 D,_E,^C,E, D,E, C,2 | D,F,D,D, D,_E, ^C,2 | D,_E,^C,E, D,E, C,2 | D,F,D,D, D,_E, ^C,2 | %54
 D,_E,^C,E, D,E, C,2 | !tenuto!D,F,D,D, D,_E, ^C,2 | D,_E,^C,E, D,E, C,2 | D,F,D,D, D,_E, ^C,2 | %58
 D,_E,^C,E, D,E, C,2 | D,F,D,D, D,_E, ^C,2 ||!ff! F,!>!F, D,2 z4 | z8 | !>!F,!>!F, D,2 z4 | z8 | %64
!ff! F,!>!F, D,2 z4 | z8 | !>!F,!>!F, D,2 z4 | z8 || x8 | F,!>!F, D,2 z4 |] %70

